X:1743
T:East Clare Reel
O:england
R:reel
M:C|
K:Ddor
DEFA d2cA|GEED E^FGB|Adde dcAB|cAGE EDCE|
DEFA d2cA|GEED E^FGB|1 Ad~d2 ^fded|cAGE CEGE:|2 Adde dcAB|cAGE ED~D2||
|:aged cded|c2cd e^fga|aged cded|cAGE EDD2|
ed (3e^fg aged|dcAB cAGE|1 =F2FE FGAB|cAGE EDD2:|2 =F2FE FGAd|cAGE EDCE||
